source/images/devices/iphone_large_white.svg

<?xml version="1.0" encoding="UTF-8" standalone="no"?>
<svg width="292px" height="594px" viewBox="0 0 292 594" version="1.1" xmlns="http://www.w3.org/2000/svg" xmlns:xlink="http://www.w3.org/1999/xlink">
    <!-- Generator: Sketch 3.8.2 (29753) - http://www.bohemiancoding.com/sketch -->
    <title>devices/iphone_large_white</title>
    <desc>Created with Sketch.</desc>
    <defs>
        <rect id="path-1" x="0.200602441" y="74.6214525" width="6.04893516" height="24.8738175" rx="2.04312438"></rect>
        <filter x="-50%" y="-50%" width="200%" height="200%" filterUnits="objectBoundingBox" id="filter-2">
            <feGaussianBlur stdDeviation="0.5" in="SourceAlpha" result="shadowBlurInner1"></feGaussianBlur>
            <feOffset dx="0" dy="0" in="shadowBlurInner1" result="shadowOffsetInner1"></feOffset>
            <feComposite in="shadowOffsetInner1" in2="SourceAlpha" operator="arithmetic" k2="-1" k3="1" result="shadowInnerInner1"></feComposite>
            <feColorMatrix values="0 0 0 0 0   0 0 0 0 0   0 0 0 0 0  0 0 0 0.3 0" type="matrix" in="shadowInnerInner1"></feColorMatrix>
        </filter>
        <rect id="path-3" x="0.872706348" y="180.167111" width="6.04893516" height="43.0249816" rx="2.04312438"></rect>
        <filter x="-50%" y="-50%" width="200%" height="200%" filterUnits="objectBoundingBox" id="filter-4">
            <feGaussianBlur stdDeviation="0.5" in="SourceAlpha" result="shadowBlurInner1"></feGaussianBlur>
            <feOffset dx="0" dy="0" in="shadowBlurInner1" result="shadowOffsetInner1"></feOffset>
            <feComposite in="shadowOffsetInner1" in2="SourceAlpha" operator="arithmetic" k2="-1" k3="1" result="shadowInnerInner1"></feComposite>
            <feColorMatrix values="0 0 0 0 0   0 0 0 0 0   0 0 0 0 0  0 0 0 0.3 0" type="matrix" in="shadowInnerInner1"></feColorMatrix>
        </filter>
        <rect id="path-5" x="0.872706348" y="127.058149" width="6.04893516" height="43.0249816" rx="2.04312438"></rect>
        <filter x="-50%" y="-50%" width="200%" height="200%" filterUnits="objectBoundingBox" id="filter-6">
            <feGaussianBlur stdDeviation="0.5" in="SourceAlpha" result="shadowBlurInner1"></feGaussianBlur>
            <feOffset dx="0" dy="0" in="shadowBlurInner1" result="shadowOffsetInner1"></feOffset>
            <feComposite in="shadowOffsetInner1" in2="SourceAlpha" operator="arithmetic" k2="-1" k3="1" result="shadowInnerInner1"></feComposite>
            <feColorMatrix values="0 0 0 0 0   0 0 0 0 0   0 0 0 0 0  0 0 0 0.3 0" type="matrix" in="shadowInnerInner1"></feColorMatrix>
        </filter>
        <rect id="path-7" x="285.844763" y="126.385884" width="6.04893516" height="43.0249816" rx="2.04312438"></rect>
        <filter x="-50%" y="-50%" width="200%" height="200%" filterUnits="objectBoundingBox" id="filter-8">
            <feGaussianBlur stdDeviation="0.5" in="SourceAlpha" result="shadowBlurInner1"></feGaussianBlur>
            <feOffset dx="0" dy="0" in="shadowBlurInner1" result="shadowOffsetInner1"></feOffset>
            <feComposite in="shadowOffsetInner1" in2="SourceAlpha" operator="arithmetic" k2="-1" k3="1" result="shadowInnerInner1"></feComposite>
            <feColorMatrix values="0 0 0 0 0   0 0 0 0 0   0 0 0 0 0  0 0 0 0.3 0" type="matrix" in="shadowInnerInner1"></feColorMatrix>
        </filter>
        <rect id="path-9" x="6.92164151" y="4.03359203" width="278.923121" height="585.543109" rx="40.8624875"></rect>
        <filter x="-50%" y="-50%" width="200%" height="200%" filterUnits="objectBoundingBox" id="filter-10">
            <feGaussianBlur stdDeviation="3.5" in="SourceAlpha" result="shadowBlurInner1"></feGaussianBlur>
            <feOffset dx="0" dy="0" in="shadowBlurInner1" result="shadowOffsetInner1"></feOffset>
            <feComposite in="shadowOffsetInner1" in2="SourceAlpha" operator="arithmetic" k2="-1" k3="1" result="shadowInnerInner1"></feComposite>
            <feColorMatrix values="0 0 0 0 0   0 0 0 0 0   0 0 0 0 0  0 0 0 0.05 0" type="matrix" in="shadowInnerInner1"></feColorMatrix>
        </filter>
    </defs>
    <g id="Page-1" stroke="none" stroke-width="1" fill="none" fill-rule="evenodd">
        <g id="devices/iphone_large_white">
            <g id="Mute">
                <use fill="#FFFFFF" fill-rule="evenodd" xlink:href="#path-1"></use>
                <use fill="black" fill-opacity="1" filter="url(#filter-2)" xlink:href="#path-1"></use>
            </g>
            <g id="Volume-Down">
                <use fill="#FFFFFF" fill-rule="evenodd" xlink:href="#path-3"></use>
                <use fill="black" fill-opacity="1" filter="url(#filter-4)" xlink:href="#path-3"></use>
            </g>
            <g id="Volume-Up">
                <use fill="#FFFFFF" fill-rule="evenodd" xlink:href="#path-5"></use>
                <use fill="black" fill-opacity="1" filter="url(#filter-6)" xlink:href="#path-5"></use>
            </g>
            <g id="Power">
                <use fill="#FFFFFF" fill-rule="evenodd" xlink:href="#path-7"></use>
                <use fill="black" fill-opacity="1" filter="url(#filter-8)" xlink:href="#path-7"></use>
            </g>
            <path d="M2.88901807,224.573059 C2.88901807,223.666201 4.23322588,222.759343 4.23322588,221.847562 L4.23322588,128.420898 C4.23322588,127.48105 2.88901807,126.541203 2.88901807,125.601355 L2.88901807,43.5930695 C2.88901807,19.517282 22.4033362,0 46.4763741,0 L246.29003,0 C270.362662,0 289.877386,19.5210457 289.877386,43.581381 L289.877386,125.81941 C289.877386,126.69388 288.533178,127.56835 288.533178,128.40268 C288.533178,141.430629 288.533178,154.458579 288.533178,167.461221 C288.533178,168.335308 289.877386,169.20928 289.877386,170.083131 C289.877386,296.936323 289.877386,550.017214 289.877386,550.017214 C289.877386,574.093007 270.363068,593.610293 246.29003,593.610293 L46.4763741,593.610293 C22.4037421,593.610293 2.88901807,574.1051 2.88901807,550.018695 L2.88901807,224.573059 Z" id="Frame" fill="#FFFFFF"></path>
            <rect id="Band-insulator-1" fill-opacity="0.200000018" fill="#191919" x="2.88901807" y="46.3863083" width="15.4583898" height="10.7562454"></rect>
            <rect id="Band-insulator-2" fill-opacity="0.200000018" fill="#191919" x="274.418996" y="46.3863083" width="15.4583898" height="10.7562454"></rect>
            <rect id="Band-insulator-3" fill-opacity="0.200000018" fill="#191919" x="2.88901807" y="535.123209" width="15.4583898" height="10.7562454"></rect>
            <rect id="Band-insulator-4" fill-opacity="0.200000018" fill="#191919" x="274.418996" y="535.123209" width="15.4583898" height="10.7562454"></rect>
            <g id="Face">
                <use fill="#FFFFFF" fill-rule="evenodd" xlink:href="#path-9"></use>
                <use fill="black" fill-opacity="1" filter="url(#filter-10)" xlink:href="#path-9"></use>
            </g>
            <ellipse id="Camera-surround" fill-opacity="0.150000006" fill="#191919" cx="101.688292" cy="36.9745936" rx="6.04893516" ry="6.05038804"></ellipse>
            <rect id="Speaker" fill-opacity="0.150000006" fill="#191919" x="121.85141" y="32.9410016" width="49.7356891" height="8.06718406" rx="4.03359203"></rect>
            <rect id="Sensor-surround" fill-opacity="0.150000006" fill="#191919" x="142.686631" y="13.4453068" width="8.06524688" height="8.06718406" rx="3.40520729"></rect>
            <ellipse id="Home-button" fill-opacity="0.150000006" fill="#191919" cx="147.391358" cy="555.291169" rx="22.8515328" ry="22.8570215"></ellipse>
        </g>
    </g>
</svg>

<svg width="292" height="594" viewBox="0 0 292 594" xmlns="http://www.w3.org/2000/svg" xmlns:xlink="http://www.w3.org/1999/xlink"><title>devices/iphone_large_white</title><defs><rect id="a" x=".201" y="74.621" width="6.049" height="24.874" rx="2.043"/><filter x="-50%" y="-50%" width="200%" height="200%" filterUnits="objectBoundingBox" id="b"><feGaussianBlur stdDeviation=".5" in="SourceAlpha" result="shadowBlurInner1"/><feOffset in="shadowBlurInner1" result="shadowOffsetInner1"/><feComposite in="shadowOffsetInner1" in2="SourceAlpha" operator="arithmetic" k2="-1" k3="1" result="shadowInnerInner1"/><feColorMatrix values="0 0 0 0 0 0 0 0 0 0 0 0 0 0 0 0 0 0 0.3 0" in="shadowInnerInner1"/></filter><rect id="c" x=".873" y="180.167" width="6.049" height="43.025" rx="2.043"/><filter x="-50%" y="-50%" width="200%" height="200%" filterUnits="objectBoundingBox" id="d"><feGaussianBlur stdDeviation=".5" in="SourceAlpha" result="shadowBlurInner1"/><feOffset in="shadowBlurInner1" result="shadowOffsetInner1"/><feComposite in="shadowOffsetInner1" in2="SourceAlpha" operator="arithmetic" k2="-1" k3="1" result="shadowInnerInner1"/><feColorMatrix values="0 0 0 0 0 0 0 0 0 0 0 0 0 0 0 0 0 0 0.3 0" in="shadowInnerInner1"/></filter><rect id="e" x=".873" y="127.058" width="6.049" height="43.025" rx="2.043"/><filter x="-50%" y="-50%" width="200%" height="200%" filterUnits="objectBoundingBox" id="f"><feGaussianBlur stdDeviation=".5" in="SourceAlpha" result="shadowBlurInner1"/><feOffset in="shadowBlurInner1" result="shadowOffsetInner1"/><feComposite in="shadowOffsetInner1" in2="SourceAlpha" operator="arithmetic" k2="-1" k3="1" result="shadowInnerInner1"/><feColorMatrix values="0 0 0 0 0 0 0 0 0 0 0 0 0 0 0 0 0 0 0.3 0" in="shadowInnerInner1"/></filter><rect id="g" x="285.845" y="126.386" width="6.049" height="43.025" rx="2.043"/><filter x="-50%" y="-50%" width="200%" height="200%" filterUnits="objectBoundingBox" id="h"><feGaussianBlur stdDeviation=".5" in="SourceAlpha" result="shadowBlurInner1"/><feOffset in="shadowBlurInner1" result="shadowOffsetInner1"/><feComposite in="shadowOffsetInner1" in2="SourceAlpha" operator="arithmetic" k2="-1" k3="1" result="shadowInnerInner1"/><feColorMatrix values="0 0 0 0 0 0 0 0 0 0 0 0 0 0 0 0 0 0 0.3 0" in="shadowInnerInner1"/></filter><rect id="i" x="6.922" y="4.034" width="278.923" height="585.543" rx="40.862"/><filter x="-50%" y="-50%" width="200%" height="200%" filterUnits="objectBoundingBox" id="j"><feGaussianBlur stdDeviation="3.5" in="SourceAlpha" result="shadowBlurInner1"/><feOffset in="shadowBlurInner1" result="shadowOffsetInner1"/><feComposite in="shadowOffsetInner1" in2="SourceAlpha" operator="arithmetic" k2="-1" k3="1" result="shadowInnerInner1"/><feColorMatrix values="0 0 0 0 0 0 0 0 0 0 0 0 0 0 0 0 0 0 0.05 0" in="shadowInnerInner1"/></filter></defs><g fill="none" fill-rule="evenodd"><use fill="#FFF" xlink:href="#a"/><use fill="#000" filter="url(#b)" xlink:href="#a"/><use fill="#FFF" xlink:href="#c"/><use fill="#000" filter="url(#d)" xlink:href="#c"/><use fill="#FFF" xlink:href="#e"/><use fill="#000" filter="url(#f)" xlink:href="#e"/><use fill="#FFF" xlink:href="#g"/><use fill="#000" filter="url(#h)" xlink:href="#g"/><path d="M2.89 224.573c0-.907 1.343-1.814 1.343-2.725V128.42c0-.94-1.344-1.88-1.344-2.82V43.594C2.89 19.517 22.402 0 46.475 0H246.29c24.073 0 43.587 19.52 43.587 43.58v82.24c0 .874-1.344 1.748-1.344 2.583v39.058c0 .875 1.344 1.75 1.344 2.623v379.934c0 24.076-19.514 43.593-43.587 43.593H46.476c-24.072 0-43.587-19.505-43.587-43.59V224.572z" fill="#FFF"/><path fill-opacity=".2" fill="#191919" d="M2.89 46.386h15.457v10.756H2.89zM274.42 46.386h15.457v10.756H274.42zM2.89 535.123h15.457v10.756H2.89zM274.42 535.123h15.457v10.756H274.42z"/><use fill="#FFF" xlink:href="#i"/><use fill="#000" filter="url(#j)" xlink:href="#i"/><rect fill="#000" x="17.627" y="70.514" width="257.512" height="453.739" rx="2.724"/><ellipse fill-opacity=".15" fill="#191919" cx="101.688" cy="36.975" rx="6.049" ry="6.05"/><rect fill-opacity=".15" fill="#191919" x="121.851" y="32.941" width="49.736" height="8.067" rx="4.034"/><rect fill-opacity=".15" fill="#191919" x="142.687" y="13.445" width="8.065" height="8.067" rx="3.405"/><ellipse fill-opacity=".15" fill="#191919" cx="147.391" cy="555.291" rx="22.852" ry="22.857"/></g></svg>
